X:1
T: Clarkson's Reel
C:
R:Reel
Q: 232
K:D
M:4/4
L:1/8
A,2|D2 DG FE DF|AB AF Ac dc|BA Bc dB AF|EG FD ED B,E|
D2 DG FE DF|AB AF Ac dc|Bd ce dB AF|EG FE D2 eg|
|:fd df af df|ed cd ef ge|fd df af df|ed ef d2 ((3ABc)|
de fg af df|ed cd ef gd|((3fga) ec dB AF|G2 FE D2 de:|2G2 FD ED B,E|
D2 DG FE DF|AB AF Ac dc|BA Bc dB AF|EG FD ED B,E|
D2 DG FE DF|AB AF Ac dc|Bd ce dB AF|EG FE D2||
